X:57
M:6/8
L:1/8
K:G
|:(3g/f/e/|dBB B2 (3g/f/e/|dBB B2 (3g/f/e/|dBG G>FG|FAA A2 (3g/f/e/|
dBB B2 (3g/f/e/|dBG g2 f/4e/4d/4c/4|Bdg fac'|gbd' g2 (3g/f/e/|
dBB B2 (3b/g/e/|dBB B2 (3g/f/e/|dBG G>FG|FAA A2 B/c/|dgb agf|
ga/g/f/e/ ~d2 (e/f/|g/)d/c/B/A/G/ A>GA|GBd G2:|

